X:334
T:The Gipsies Came to Lord M---'s Gate
B:Joyce, P. W.; "Old Irish Folk Music and Songs"
H:In the district around Newtownards, a version of the Scotch ballad, "The
H:Gypsies cam' to our lord's yett," was sung to this Irish air.
R:song air
A:Down
O:Irish
L:1/8
M:C
K:F
D|G2 G2 A3 G|F2 D2 D3 D|B2 c2 defc|d2 G2 G3 A|
B2 c2 defe|dcAG F2 GA|B2 A2 GBAG|F2 D2 D3||


